X:14
T:No 13 Angloise
S:efter Carl Gustaf Sundblad
O:Godegård, Östergötland 
R:Anglaise
B:Carl Gustaf Sundblads notbok
B:http://www.smus.se/earkiv/fmk/browselarge.php?lang=sw&katalogid=M+27&bildnr=00008
B:http://www.smus.se/earkiv/fmk/browselarge.php?lang=sw&katalogid=%C3%96g+20&bildnr=00015
M:2/4
L:1/16
K:C
G2 | c3e gege | cBcf A2G2 | c3e gege | gfdB c2 ::
d2 | BGBd cBce | dcdf egec | BGBd cBce | gfdB c2 :|]

